modules/feathericon/icons/code.svg

<?xml version="1.0" encoding="UTF-8"?>
<svg width="24px" height="24px" viewBox="0 0 24 24" version="1.1" xmlns="http://www.w3.org/2000/svg" xmlns:xlink="http://www.w3.org/1999/xlink">
    <!-- Generator: sketchtool 52.2 (67145) - http://www.bohemiancoding.com/sketch -->
    <title>code</title>
    <desc>Created with sketchtool.</desc>
    <g id="production" stroke="none" stroke-width="1" fill="none" fill-rule="evenodd">
        <g id="code" fill="#000000">
            <path d="M21.0037081,11.6568542 L15.3468538,17.3137085 L13.9326403,15.8994949 L18.175281,11.6568542 L13.9326403,7.41421356 L15.3468538,6 L21.0037081,11.6568542 Z M5.82842712,11.6568542 L10.0710678,15.8994949 L8.65685425,17.3137085 L3,11.6568542 L8.65685425,6 L10.0710678,7.41421356 L5.82842712,11.6568542 Z" id="Shape"></path>
        </g>
    </g>
</svg>

<svg width="24" height="24" viewBox="0 0 24 24" xmlns="http://www.w3.org/2000/svg"><path d="M21.004 11.657l-5.657 5.657-1.414-1.415 4.242-4.242-4.242-4.243L15.347 6l5.657 5.657zm-15.176 0l4.243 4.242-1.414 1.415L3 11.657 8.657 6l1.414 1.414-4.243 4.243z" fill="#000" fill-rule="evenodd"/></svg>
